**kern	**kern
*staff2	*staff1
*clefF4	*clefG2
*k[]	*k[]
*M3/4	*M3/4
*C:	*C:
=	=
*^	*
4CC	2.CC	12eL
.	.	12g
.	.	12eeJ
4C	.	12d#L
.	.	12f#
.	.	12dd#J
4C	.	12eL
.	.	12g
.	.	12eeJ
=93	=93	=93
4CC	2.CC	12eL
.	.	12g#
.	.	12eeJ
4C	.	12fL
.	.	12a
.	.	12ffJ
4C	.	12eL
.	.	12g
.	.	12eeJ
=94	=94	=94
4CC	2.CC	12eL
.	.	12g
.	.	12eeJ
4C	.	12d#L
.	.	12f#
.	.	12dd#J
4C	.	12dL
.	.	12f
.	.	12ddJ
=95	=95	=95
4CC	2.CC	12BL
.	.	12d#
.	.	12bJ
4C	.	12cL
.	.	12e
.	.	12ccJ
4C	.	12cL
.	.	12e
.	.	12ccJ
*v	*v	*
=96	=96
4BB'	12c#L
.	12g
.	12cc#J
4r	12dL
.	12g
.	12ddJ
4C'	12eL
.	12g
.	12eeJ
=97	=97
4AA'	12fL
.	12cc
.	12ffJ
4r	12f#L
.	12cc
.	12ff#J
4EE'	12gL
.	12cc
.	12ggJ
=98	=98
4FF'	12g#L
.	12cc
.	12gg#J
4r	12aL
.	12cc
.	12aaJ
4GG'	12dL
.	12f
.	12bJ
=99	=99
4CC 4C	4e 4cc
4r	4r
=	=
*-	*-
